build/img/svgicons/logo.svg

<svg width="170" height="16" viewBox="0 0 170 16" fill="none" xmlns="http://www.w3.org/2000/svg">
<g id="Group">
<path id="PHOTOSNAP" fill-rule="evenodd" clip-rule="evenodd" d="M70.1027 15.3622C69.0721 15.7874 67.9658 16 66.7838 16C65.5874 16 64.4775 15.7874 63.4541 15.3622C62.4306 14.9369 61.5405 14.3568 60.7838 13.6216C60.027 12.8865 59.4324 12.036 59 11.0703C58.5676 10.1045 58.3514 9.08108 58.3514 8C58.3514 6.91892 58.5676 5.8955 59 4.92973C59.4324 3.96396 60.027 3.11351 60.7838 2.37838C61.5405 1.64324 62.4306 1.06306 63.4541 0.637838C64.4775 0.212613 65.5874 0 66.7838 0C67.9658 0 69.0721 0.212613 70.1027 0.637838C71.1333 1.06306 72.027 1.64324 72.7838 2.37838C73.5405 3.11351 74.1351 3.96396 74.5676 4.92973C75 5.8955 75.2162 6.91892 75.2162 8C75.2162 9.08108 75 10.1045 74.5676 11.0703C74.1351 12.036 73.5405 12.8865 72.7838 13.6216C72.027 14.3568 71.1333 14.9369 70.1027 15.3622ZM31.1081 11.027V15.5676H27V0.432432H33.8108C34.6468 0.432432 35.4108 0.565766 36.1027 0.832432C36.7946 1.0991 37.3856 1.47027 37.8757 1.94595C38.3658 2.42162 38.7477 2.98378 39.0216 3.63243C39.2955 4.28108 39.4324 4.98018 39.4324 5.72973C39.4324 6.49369 39.2955 7.1964 39.0216 7.83784C38.7477 8.47928 38.3658 9.03784 37.8757 9.51351C37.3856 9.98919 36.7946 10.3604 36.1027 10.627C35.4108 10.8937 34.6468 11.027 33.8108 11.027H31.1081ZM31.1081 7.35135H33.5946C34.0847 7.35135 34.4955 7.18919 34.827 6.86486C35.1586 6.54054 35.3243 6.16216 35.3243 5.72973C35.3243 5.2973 35.1586 4.91892 34.827 4.59459C34.4955 4.27027 34.0847 4.10811 33.5946 4.10811H31.1081V7.35135ZM46.1351 15.5676V9.72973H51.6486V15.5676H55.7568V0.432432H51.6486V6.05405H46.1351V0.432432H42.027V15.5676H46.1351ZM66.7838 12.3243C66.1928 12.3243 65.6378 12.2162 65.1189 12C64.6 11.7838 64.1532 11.4811 63.7784 11.0919C63.4036 10.7027 63.1081 10.245 62.8919 9.71892C62.6757 9.19279 62.5676 8.61982 62.5676 8C62.5676 7.38018 62.6757 6.80721 62.8919 6.28108C63.1081 5.75495 63.4036 5.2973 63.7784 4.90811C64.1532 4.51892 64.6 4.21622 65.1189 4C65.6378 3.78378 66.1928 3.67568 66.7838 3.67568C67.3748 3.67568 67.9261 3.78378 68.4378 4C68.9495 4.21622 69.3964 4.51892 69.7784 4.90811C70.1604 5.2973 70.4595 5.75495 70.6757 6.28108C70.8919 6.80721 71 7.38018 71 8C71 8.61982 70.8919 9.19279 70.6757 9.71892C70.4595 10.245 70.1604 10.7027 69.7784 11.0919C69.3964 11.4811 68.9495 11.7838 68.4378 12C67.9261 12.2162 67.3748 12.3243 66.7838 12.3243ZM84.8378 4.10811V15.5676H80.7297V4.10811H76.5135V0.432432H89.0541V4.10811H84.8378ZM98.7838 16C99.9658 16 101.072 15.7874 102.103 15.3622C103.133 14.9369 104.027 14.3568 104.784 13.6216C105.541 12.8865 106.135 12.036 106.568 11.0703C107 10.1045 107.216 9.08108 107.216 8C107.216 6.91892 107 5.8955 106.568 4.92973C106.135 3.96396 105.541 3.11351 104.784 2.37838C104.027 1.64324 103.133 1.06306 102.103 0.637838C101.072 0.212613 99.9658 0 98.7838 0C97.5874 0 96.4775 0.212613 95.4541 0.637838C94.4306 1.06306 93.5405 1.64324 92.7838 2.37838C92.027 3.11351 91.4324 3.96396 91 4.92973C90.5676 5.8955 90.3514 6.91892 90.3514 8C90.3514 9.08108 90.5676 10.1045 91 11.0703C91.4324 12.036 92.027 12.8865 92.7838 13.6216C93.5405 14.3568 94.4306 14.9369 95.4541 15.3622C96.4775 15.7874 97.5874 16 98.7838 16ZM97.1189 12C97.6378 12.2162 98.1928 12.3243 98.7838 12.3243C99.3748 12.3243 99.9261 12.2162 100.438 12C100.95 11.7838 101.396 11.4811 101.778 11.0919C102.16 10.7027 102.459 10.245 102.676 9.71892C102.892 9.19279 103 8.61982 103 8C103 7.38018 102.892 6.80721 102.676 6.28108C102.459 5.75495 102.16 5.2973 101.778 4.90811C101.396 4.51892 100.95 4.21622 100.438 4C99.9261 3.78378 99.3748 3.67568 98.7838 3.67568C98.1928 3.67568 97.6378 3.78378 97.1189 4C96.6 4.21622 96.1532 4.51892 95.7784 4.90811C95.4036 5.2973 95.1081 5.75495 94.8919 6.28108C94.6757 6.80721 94.5676 7.38018 94.5676 8C94.5676 8.61982 94.6757 9.19279 94.8919 9.71892C95.1081 10.245 95.4036 10.7027 95.7784 11.0919C96.1532 11.4811 96.6 11.7838 97.1189 12ZM114.568 16C115.519 16 116.369 15.8667 117.119 15.6C117.868 15.3333 118.503 14.973 119.022 14.5189C119.541 14.0649 119.937 13.5387 120.211 12.9405C120.485 12.3423 120.622 11.7045 120.622 11.027C120.622 10.1477 120.449 9.42703 120.103 8.86487C119.757 8.3027 119.324 7.84865 118.805 7.5027C118.286 7.15676 117.721 6.88288 117.108 6.68108C116.495 6.47928 115.93 6.29189 115.411 6.11892C114.892 5.94595 114.459 5.76216 114.114 5.56757C113.768 5.37297 113.595 5.1027 113.595 4.75676C113.595 4.42523 113.742 4.12613 114.038 3.85946C114.333 3.59279 114.726 3.45946 115.216 3.45946C115.591 3.45946 115.93 3.52072 116.232 3.64324C116.535 3.76577 116.795 3.90631 117.011 4.06486C117.27 4.23784 117.501 4.43243 117.703 4.64865L120.081 2.16216C119.735 1.75856 119.31 1.3982 118.805 1.08108C118.373 0.807207 117.825 0.558559 117.162 0.335135C116.499 0.111712 115.706 0 114.784 0C113.919 0 113.133 0.12973 112.427 0.389189C111.721 0.648649 111.119 0.994595 110.622 1.42703C110.124 1.85946 109.739 2.35676 109.465 2.91892C109.191 3.48108 109.054 4.05766 109.054 4.64865C109.054 5.52793 109.227 6.24865 109.573 6.81081C109.919 7.37297 110.351 7.82703 110.87 8.17297C111.389 8.51892 111.955 8.79279 112.568 8.99459C113.18 9.1964 113.746 9.38378 114.265 9.55676C114.784 9.72973 115.216 9.91351 115.562 10.1081C115.908 10.3027 116.081 10.573 116.081 10.9189C116.081 11.3514 115.908 11.7297 115.562 12.0541C115.216 12.3784 114.741 12.5405 114.135 12.5405C113.645 12.5405 113.202 12.4577 112.805 12.2919C112.409 12.1261 112.067 11.9423 111.778 11.7405C111.447 11.4955 111.151 11.2216 110.892 10.9189L108.514 13.4054C108.946 13.8955 109.458 14.3279 110.049 14.7027C110.553 15.0342 111.18 15.3333 111.93 15.6C112.679 15.8667 113.559 16 114.568 16ZM127.108 7.13514V15.5676H123V0.432432H126.568L133.054 8.86486V0.432432H137.162V15.5676H133.616L127.108 7.13514ZM143.324 15.5676L144.405 12.3243H149.378L150.459 15.5676H154.892L149.162 0.432432H144.622L138.892 15.5676H143.324ZM146.892 4.64865L145.486 9.08108H148.297L146.892 4.64865ZM160.73 15.5676V11.027H163.432C164.268 11.027 165.032 10.8937 165.724 10.627C166.416 10.3604 167.007 9.98919 167.497 9.51351C167.987 9.03784 168.369 8.47928 168.643 7.83784C168.917 7.1964 169.054 6.49369 169.054 5.72973C169.054 4.98018 168.917 4.28108 168.643 3.63243C168.369 2.98378 167.987 2.42162 167.497 1.94595C167.007 1.47027 166.416 1.0991 165.724 0.832432C165.032 0.565766 164.268 0.432432 163.432 0.432432H156.622V15.5676H160.73ZM160.73 7.35135H163.216C163.706 7.35135 164.117 7.18919 164.449 6.86486C164.78 6.54054 164.946 6.16216 164.946 5.72973C164.946 5.2973 164.78 4.91892 164.449 4.59459C164.117 4.27027 163.706 4.10811 163.216 4.10811H160.73V7.35135Z" fill="black"/>
<path id="Path 2" fill-rule="evenodd" clip-rule="evenodd" d="M0 16L9.5 0L19 16H0Z" fill="url(#paint0_linear_0_4414)"/>
</g>
<defs>
<linearGradient id="paint0_linear_0_4414" x1="9.5" y1="20" x2="16.6529" y2="3.01176" gradientUnits="userSpaceOnUse">
<stop stop-color="#FFC593"/>
<stop offset="0.519452" stop-color="#BC7198"/>
<stop offset="1" stop-color="#5A77FF"/>
</linearGradient>
</defs>
</svg>

<svg xmlns="http://www.w3.org/2000/svg" width="170" height="16"><defs><linearGradient id="a" x1="0%" x2="50%" y1="85.457%" y2="14.543%"><stop offset="0%" stop-color="#FFC593"/><stop offset="51.945%" stop-color="#BC7198"/><stop offset="100%" stop-color="#5A77FF"/></linearGradient></defs><g fill="none" fill-rule="evenodd"><path fill="#000" fill-rule="nonzero" d="M31.108 15.568v-4.541h2.703c.836 0 1.6-.133 2.292-.4a5.19 5.19 0 001.773-1.113 5.1 5.1 0 001.146-1.676c.273-.642.41-1.344.41-2.108 0-.75-.137-1.449-.41-2.098a5.072 5.072 0 00-1.146-1.686A5.19 5.19 0 0036.103.832c-.692-.266-1.456-.4-2.292-.4H27v15.136h4.108zm2.487-8.217h-2.487V4.108h2.487c.49 0 .9.162 1.232.487.332.324.497.702.497 1.135 0 .432-.165.81-.497 1.135-.332.324-.742.486-1.232.486zm12.54 8.217V9.73h5.514v5.838h4.108V.432h-4.108v5.622h-5.514V.432h-4.108v15.136h4.108zM66.784 16a8.616 8.616 0 003.319-.638 8.401 8.401 0 002.68-1.74 8.192 8.192 0 001.785-2.552c.432-.965.648-1.989.648-3.07a7.428 7.428 0 00-.648-3.07 8.192 8.192 0 00-1.784-2.552 8.401 8.401 0 00-2.681-1.74A8.616 8.616 0 0066.783 0c-1.196 0-2.306.213-3.329.638a8.432 8.432 0 00-2.67 1.74A8.192 8.192 0 0059 4.93 7.428 7.428 0 0058.351 8c0 1.081.217 2.105.649 3.07a8.192 8.192 0 001.784 2.552 8.432 8.432 0 002.67 1.74c1.023.425 2.133.638 3.33.638zm0-3.676A4.285 4.285 0 0165.119 12a3.942 3.942 0 01-1.34-.908 4.33 4.33 0 01-.887-1.373A4.479 4.479 0 0162.568 8c0-.62.108-1.193.324-1.719a4.33 4.33 0 01.886-1.373c.375-.39.822-.692 1.34-.908a4.285 4.285 0 011.666-.324c.59 0 1.142.108 1.654.324.512.216.958.519 1.34.908.382.39.681.847.898 1.373.216.526.324 1.1.324 1.719 0 .62-.108 1.193-.324 1.719a4.236 4.236 0 01-.898 1.373c-.382.39-.828.692-1.34.908a4.206 4.206 0 01-1.654.324zm18.054 3.244V4.108h4.216V.432h-12.54v3.676h4.216v11.46h4.108zM98.784 16a8.616 8.616 0 003.319-.638 8.401 8.401 0 002.68-1.74 8.192 8.192 0 001.785-2.552c.432-.965.648-1.989.648-3.07a7.428 7.428 0 00-.648-3.07 8.192 8.192 0 00-1.784-2.552 8.401 8.401 0 00-2.681-1.74A8.616 8.616 0 0098.783 0c-1.196 0-2.306.213-3.329.638a8.432 8.432 0 00-2.67 1.74A8.192 8.192 0 0091 4.93 7.428 7.428 0 0090.351 8c0 1.081.217 2.105.649 3.07a8.192 8.192 0 001.784 2.552 8.432 8.432 0 002.67 1.74c1.023.425 2.133.638 3.33.638zm0-3.676A4.285 4.285 0 0197.119 12a3.942 3.942 0 01-1.34-.908 4.33 4.33 0 01-.887-1.373A4.479 4.479 0 0194.568 8c0-.62.108-1.193.324-1.719a4.33 4.33 0 01.886-1.373c.375-.39.822-.692 1.34-.908a4.285 4.285 0 011.666-.324c.59 0 1.142.108 1.654.324.512.216.958.519 1.34.908.382.39.681.847.898 1.373.216.526.324 1.1.324 1.719 0 .62-.108 1.193-.324 1.719a4.236 4.236 0 01-.898 1.373c-.382.39-.828.692-1.34.908a4.206 4.206 0 01-1.654.324zM114.568 16c.95 0 1.801-.133 2.55-.4.75-.267 1.385-.627 1.904-1.081.519-.454.915-.98 1.189-1.578.274-.599.41-1.236.41-1.914 0-.88-.172-1.6-.518-2.162a4.35 4.35 0 00-1.298-1.362 6.98 6.98 0 00-1.697-.822l-1.697-.562a7.533 7.533 0 01-1.297-.551c-.346-.195-.52-.465-.52-.811 0-.332.148-.63.444-.898.295-.266.688-.4 1.178-.4.375 0 .714.062 1.016.184.303.123.563.263.779.422.26.173.49.367.692.584l2.378-2.487a5.559 5.559 0 00-1.276-1.08c-.432-.275-.98-.523-1.643-.747C116.5.112 115.706 0 114.784 0c-.865 0-1.65.13-2.357.39-.706.259-1.308.605-1.805 1.037-.498.432-.883.93-1.157 1.492a3.908 3.908 0 00-.41 1.73c0 .879.172 1.6.518 2.162a4.35 4.35 0 001.297 1.362 6.98 6.98 0 001.698.822c.612.201 1.178.389 1.697.562.519.173.951.357 1.297.551.346.195.52.465.52.81 0 .433-.174.812-.52 1.136-.346.324-.821.487-1.427.487-.49 0-.933-.083-1.33-.25a5.466 5.466 0 01-1.027-.55 5.352 5.352 0 01-.886-.822l-2.378 2.486c.432.49.944.923 1.535 1.298.504.331 1.131.63 1.88.897.75.267 1.63.4 2.639.4zm12.54-.432V7.135l6.508 8.433h3.546V.432h-4.108v8.433L126.568.432H123v15.136h4.108zm16.216 0l1.081-3.244h4.973l1.081 3.244h4.433L149.162.432h-4.54l-5.73 15.136h4.432zm4.973-6.487h-2.81l1.405-4.432 1.405 4.432zm12.433 6.487v-4.541h2.702c.836 0 1.6-.133 2.292-.4a5.19 5.19 0 001.773-1.113 5.1 5.1 0 001.146-1.676c.274-.642.411-1.344.411-2.108 0-.75-.137-1.449-.41-2.098a5.072 5.072 0 00-1.147-1.686 5.19 5.19 0 00-1.773-1.114c-.692-.266-1.456-.4-2.292-.4h-6.81v15.136h4.108zm2.486-8.217h-2.486V4.108h2.486c.49 0 .901.162 1.233.487.331.324.497.702.497 1.135 0 .432-.166.81-.497 1.135-.332.324-.743.486-1.233.486z"/><path fill="url(#a)" d="M0 16L9.5 0 19 16z"/></g></svg>
